svg/color/3share.svg

<?xml version="1.0" encoding="UTF-8" ?>
<!DOCTYPE svg PUBLIC "-//W3C//DTD SVG 1.1//EN" "http://www.w3.org/Graphics/SVG/1.1/DTD/svg11.dtd">
<svg width="250pt" height="250pt" viewBox="0 0 250 250" version="1.1" xmlns="http://www.w3.org/2000/svg">
<g id="#ffffffff">
<path fill="#ffffff" opacity="1.00" d=" M 0.00 0.00 L 118.34 0.00 C 91.85 1.44 65.89 11.48 45.51 28.50 C 20.28 49.27 3.51 80.37 1.08 113.06 C -2.06 148.65 11.05 185.47 36.43 210.69 C 37.64 211.36 38.56 210.12 39.34 209.42 C 46.50 202.21 53.65 194.99 60.91 187.88 C 53.15 179.34 46.13 169.97 41.70 159.23 C 33.27 139.76 32.02 117.30 38.19 97.00 C 44.53 75.55 59.24 56.79 78.39 45.29 C 92.63 36.70 109.30 32.04 125.95 32.38 C 148.72 32.29 171.32 41.50 187.73 57.25 C 203.22 71.79 213.42 91.94 215.59 113.09 C 218.83 139.44 209.50 166.98 191.02 186.02 C 169.72 207.36 148.36 228.64 127.08 250.00 L 80.43 250.00 C 108.90 221.63 137.28 193.17 165.71 164.76 C 174.82 155.82 180.97 143.83 182.56 131.13 C 184.87 115.52 180.22 99.04 170.26 86.81 C 159.69 73.53 142.95 65.41 125.98 65.39 C 111.04 65.11 96.04 70.86 85.34 81.32 C 74.40 91.50 67.89 106.14 67.39 121.05 C 66.66 136.98 73.00 152.88 84.13 164.24 C 92.42 156.74 100.00 148.48 108.03 140.70 C 104.45 136.18 101.31 130.96 101.17 125.03 C 100.33 115.94 105.29 106.65 113.29 102.26 C 118.52 99.12 124.95 98.47 130.86 99.72 C 138.87 101.57 145.65 107.86 148.19 115.67 C 150.40 121.83 149.71 128.85 146.60 134.58 C 144.36 138.83 140.75 142.09 137.40 145.44 C 102.54 180.29 67.69 215.15 32.83 250.00 L 0.00 250.00 L 0.00 0.00 Z" />
<path fill="#ffffff" opacity="1.00" d=" M 131.65 0.00 L 250.00 0.00 L 250.00 250.00 L 174.79 250.00 C 187.87 237.00 200.87 223.90 213.94 210.89 C 239.65 185.17 253.35 147.63 248.96 111.39 C 245.79 79.34 229.36 48.90 204.48 28.48 C 184.10 11.47 158.14 1.44 131.65 0.00 Z" />
</g>
<g id="#6b00faff">
<path fill="#6b00fa" opacity="1.00" d=" M 118.34 0.00 L 131.65 0.00 C 158.14 1.44 184.10 11.47 204.48 28.48 C 229.36 48.90 245.79 79.34 248.96 111.39 C 253.35 147.63 239.65 185.17 213.94 210.89 C 200.87 223.90 187.87 237.00 174.79 250.00 L 127.08 250.00 C 148.36 228.64 169.72 207.36 191.02 186.02 C 209.50 166.98 218.83 139.44 215.59 113.09 C 213.42 91.94 203.22 71.79 187.73 57.25 C 171.32 41.50 148.72 32.29 125.95 32.38 C 109.30 32.04 92.63 36.70 78.39 45.29 C 59.24 56.79 44.53 75.55 38.19 97.00 C 32.02 117.30 33.27 139.76 41.70 159.23 C 46.13 169.97 53.15 179.34 60.91 187.88 C 53.65 194.99 46.50 202.21 39.34 209.42 C 38.56 210.12 37.64 211.36 36.43 210.69 C 11.05 185.47 -2.06 148.65 1.08 113.06 C 3.51 80.37 20.28 49.27 45.51 28.50 C 65.89 11.48 91.85 1.44 118.34 0.00 Z" />
<path fill="#6b00fa" opacity="1.00" d=" M 85.34 81.32 C 96.04 70.86 111.04 65.11 125.98 65.39 C 142.95 65.41 159.69 73.53 170.26 86.81 C 180.22 99.04 184.87 115.52 182.56 131.13 C 180.97 143.83 174.82 155.82 165.71 164.76 C 137.28 193.17 108.90 221.63 80.43 250.00 L 32.83 250.00 C 67.69 215.15 102.54 180.29 137.40 145.44 C 140.75 142.09 144.36 138.83 146.60 134.58 C 149.71 128.85 150.40 121.83 148.19 115.67 C 145.65 107.86 138.87 101.57 130.86 99.72 C 124.95 98.47 118.52 99.12 113.29 102.26 C 105.29 106.65 100.33 115.94 101.17 125.03 C 101.31 130.96 104.45 136.18 108.03 140.70 C 100.00 148.48 92.42 156.74 84.13 164.24 C 73.00 152.88 66.66 136.98 67.39 121.05 C 67.89 106.14 74.40 91.50 85.34 81.32 Z" />
</g>
</svg>

<?xml version="1.0" encoding="utf-8"?>
<!-- Generator: Adobe Illustrator 26.0.3, SVG Export Plug-In . SVG Version: 6.00 Build 0)  -->
<svg version="1.1" id="Layer_1" xmlns="http://www.w3.org/2000/svg" xmlns:xlink="http://www.w3.org/1999/xlink" x="0px" y="0px"
	 viewBox="0 0 250 250" style="enable-background:new 0 0 250 250;" xml:space="preserve">
<style type="text/css">
	.st0{fill:#6B00FA;}
</style>
<g id="_x23_6b00faff">
	<path class="st0" d="M118.3,0h13.3c26.5,1.4,52.5,11.5,72.8,28.5c24.9,20.4,41.3,50.9,44.5,82.9c4.4,36.2-9.3,73.8-35,99.5
		c-13.1,13-26.1,26.1-39.2,39.1h-47.7c21.3-21.4,42.6-42.6,63.9-64c18.5-19,27.8-46.6,24.6-72.9c-2.2-21.1-12.4-41.3-27.9-55.8
		c-16.4-15.8-39-25-61.8-24.9c-16.6-0.3-33.3,4.3-47.6,12.9C59.2,56.8,44.5,75.6,38.2,97c-6.2,20.3-4.9,42.8,3.5,62.2
		c4.4,10.7,11.5,20.1,19.2,28.7c-7.3,7.1-14.4,14.3-21.6,21.5c-0.8,0.7-1.7,1.9-2.9,1.3c-25.4-25.2-38.5-62-35.3-97.6
		c2.4-32.7,19.2-63.8,44.4-84.6C65.9,11.5,91.8,1.4,118.3,0z"/>
	<path class="st0" d="M85.3,81.3C96,70.9,111,65.1,126,65.4c17,0,33.7,8.1,44.3,21.4c10,12.2,14.6,28.7,12.3,44.3
		c-1.6,12.7-7.7,24.7-16.8,33.6c-28.4,28.4-56.8,56.9-85.3,85.2H32.8c34.9-34.9,69.7-69.7,104.6-104.6c3.4-3.4,7-6.6,9.2-10.9
		c3.1-5.7,3.8-12.8,1.6-18.9c-2.5-7.8-9.3-14.1-17.3-15.9c-5.9-1.2-12.3-0.6-17.6,2.5c-8,4.4-13,13.7-12.1,22.8
		c0.1,5.9,3.3,11.1,6.9,15.7c-8,7.8-15.6,16-23.9,23.5C73,152.9,66.7,137,67.4,121.1C67.9,106.1,74.4,91.5,85.3,81.3z"/>
</g>
</svg>
